src/32/apps/office-calendar.svg

<?xml version="1.0" encoding="UTF-8" standalone="no"?>
<svg
   xmlns:dc="http://purl.org/dc/elements/1.1/"
   xmlns:cc="http://creativecommons.org/ns#"
   xmlns:rdf="http://www.w3.org/1999/02/22-rdf-syntax-ns#"
   xmlns:svg="http://www.w3.org/2000/svg"
   xmlns="http://www.w3.org/2000/svg"
   xmlns:sodipodi="http://sodipodi.sourceforge.net/DTD/sodipodi-0.dtd"
   xmlns:inkscape="http://www.inkscape.org/namespaces/inkscape"
   version="1.1"
   width="32"
   height="32"
   id="svg6860"
   sodipodi:docname="office-calendar.svg"
   inkscape:version="0.92.4 (5da689c313, 2019-01-14)">
  <sodipodi:namedview
     pagecolor="#ffffff"
     bordercolor="#666666"
     borderopacity="1"
     objecttolerance="10"
     gridtolerance="10"
     guidetolerance="10"
     inkscape:pageopacity="0"
     inkscape:pageshadow="2"
     inkscape:window-width="1366"
     inkscape:window-height="697"
     id="namedview61"
     showgrid="false"
     inkscape:zoom="14.75"
     inkscape:cx="0.72639727"
     inkscape:cy="18.371477"
     inkscape:window-x="0"
     inkscape:window-y="0"
     inkscape:window-maximized="1"
     inkscape:current-layer="svg6860" />
  <defs
     id="defs6862" />
  <metadata
     id="metadata6865">
    <rdf:RDF>
      <cc:Work
         rdf:about="">
        <dc:format>image/svg+xml</dc:format>
        <dc:type
           rdf:resource="http://purl.org/dc/dcmitype/StillImage" />
        <dc:title />
      </cc:Work>
    </rdf:RDF>
  </metadata>
  <rect
     width="26"
     height="25"
     rx="1.5"
     ry="1.5"
     x="3"
     y="4"
     id="rect5505"
     style="color:#000000;display:inline;overflow:visible;visibility:visible;fill:#fafafa;fill-opacity:1;fill-rule:nonzero;stroke:none;stroke-width:0.99999994;marker:none;enable-background:accumulate" />
  <path
     d="m 2.5,10 0,17.5 c 0,1.108 0.892,2 2,2 l 23,0 c 1.108,0 2,-0.892 2,-2 l 0,-17.5"
     id="rect5505-6"
     style="color:#000000;display:inline;overflow:visible;visibility:visible;opacity:0.2;fill:none;stroke:#000000;stroke-width:0.99999988;stroke-linecap:butt;stroke-linejoin:miter;stroke-miterlimit:4;stroke-dasharray:none;stroke-dashoffset:0;stroke-opacity:1;marker:none;enable-background:accumulate" />
  <path
     d="m 25.499996,22.5 -18.9999961,0 z m -0.01399,-8.981257 -18.986004,-0.01407 0,11.995327 18.999996,0 z M 25.499996,19.5 6.4999999,19.5 m 18.9999961,-3 -18.9999961,0 M 9.51308,13.53126 9.48734,25.5 M 13.50266,13.583359 13.49776,25.5 M 17.49735,13.54168 17.50265,25.5 M 21.4904,13.500001 21.5096,25.5"
     id="rect4188-6-4-0"
     style="opacity:0.25;fill:none;stroke:#5e553c;stroke-width:1;stroke-miterlimit:4;stroke-opacity:1;stroke-dasharray:none" />
  <path
     d="m 4.5,3.5 c -1.108,0 -2,0.892 -2,2 l 0,4 27,0 0,-4 c 0,-1.108 -0.892,-2 -2,-2 z"
     id="rect5505-3"
     style="color:#000000;display:inline;overflow:visible;visibility:visible;fill:#9add49;fill-opacity:1;fill-rule:nonzero;stroke:none;stroke-width:0.99999994;marker:none;enable-background:accumulate" />
  <path
     d="m 2.5,9.5 0,-3.9999991 c 0,-1.108 0.892,-2 2,-2 l 23,0 c 1.108,0 2,0.892 2,2 L 29.5,9.5 Z"
     id="rect5505-6-3"
     style="color:#000000;display:inline;overflow:visible;visibility:visible;opacity:0.25;fill:none;stroke:#126400;stroke-width:1;stroke-linecap:butt;stroke-linejoin:miter;stroke-miterlimit:4;stroke-dasharray:none;stroke-dashoffset:0;stroke-opacity:1;marker:none;enable-background:accumulate" />
  <path
     d="m 6.2600002,6.5000002 c 0,0.9999997 -1.5000002,0.9999997 -1.5000002,0 0,-0.9999997 1.5000002,-0.9999997 1.5000002,0 z"
     id="path4682-6-1-2"
     style="color:#000000;display:inline;overflow:visible;visibility:visible;opacity:0.4;fill:#126400;fill-opacity:1;fill-rule:nonzero;stroke:none;stroke-width:1.07444978;marker:none;enable-background:accumulate" />
  <path
     d="m 27.25,6.5000002 c 0,0.9999997 -1.5,0.9999997 -1.5,0 0,-0.9999997 1.5,-0.9999997 1.5,0 z"
     id="path4682-6-1-2-6"
     style="color:#000000;display:inline;overflow:visible;visibility:visible;opacity:0.4;fill:#126400;fill-opacity:1;fill-rule:nonzero;stroke:none;stroke-width:1.07444978;marker:none;enable-background:accumulate" />
</svg>

<svg xmlns="http://www.w3.org/2000/svg" width="32" height="32"><rect width="26" height="25" rx="1.5" ry="1.5" x="3" y="4" style="marker:none" color="#000" overflow="visible" fill="#fafafa"/><path d="M2.5 10v17.5c0 1.108.892 2 2 2h23c1.108 0 2-.892 2-2V10" style="marker:none" color="#000" overflow="visible" opacity=".2" fill="none" stroke="#000"/><path d="M25.5 22.5h-19zm-.014-8.981L6.5 13.505V25.5h19zM25.5 19.5h-19m19-3h-19m3.013-2.969L9.487 25.5m4.016-11.917L13.498 25.5m4-11.958l.005 11.958m3.987-12l.02 12" opacity=".25" fill="none" stroke="#5e553c"/><path d="M4.5 3.5c-1.108 0-2 .892-2 2v4h27v-4c0-1.108-.892-2-2-2z" style="marker:none" color="#000" overflow="visible" fill="#9add49"/><path d="M2.5 9.5v-4c0-1.108.892-2 2-2h23c1.108 0 2 .892 2 2v4z" style="marker:none" color="#000" overflow="visible" opacity=".25" fill="none" stroke="#126400"/><path d="M6.26 6.5c0 1-1.5 1-1.5 0s1.5-1 1.5 0zM27.25 6.5c0 1-1.5 1-1.5 0s1.5-1 1.5 0z" style="marker:none" color="#000" overflow="visible" opacity=".4" fill="#126400"/></svg>
